assets/images/svg/nginx.svg

<?xml version="1.0" encoding="UTF-8" standalone="no"?>
<svg width="512px" height="108px" viewBox="0 0 512 108" version="1.1" xmlns="http://www.w3.org/2000/svg" xmlns:xlink="http://www.w3.org/1999/xlink" preserveAspectRatio="xMidYMid">
	<g fill="#009900">
		<path d="M96.1743134,107.150604 C93.284719,107.150604 90.43958,106.025885 88.3146168,103.896476 L22.5430036,38.1204178 L22.5430036,96.0367798 C22.5430036,102.176056 17.5684558,107.150604 11.4291792,107.150604 C5.29434812,107.150604 0.315354768,102.176056 0.315354768,96.0367798 L0.315354768,11.2872001 C0.315354768,6.78832398 3.02712794,2.73844634 7.17925274,1.01802632 C11.326932,-0.706839234 16.1103221,0.244504138 19.2888759,3.42750346 L85.060489,69.203562 L85.060489,11.2872001 C85.060489,5.14792348 90.0350368,0.173375661 96.1743134,0.173375661 C102.31359,0.173375661 107.288138,5.14792348 107.288138,11.2872001 L107.288138,96.0367798 C107.288138,100.53121 104.576365,104.585534 100.42424,106.305954 C99.0505712,106.874981 97.6102196,107.150604 96.1743134,107.150604"></path>
		<path d="M147.640212,0.280068376 L144.586133,5.97923756 L120.967033,48.905273 L117.912954,54.3243738 L120.967033,59.7390292 L144.586133,101.278059 L147.778023,106.972783 L209.602006,106.972783 L212.656084,100.722368 L230.300392,65.15813 L238.21788,49.0430846 L220.29795,49.0430846 L175.14915,49.180896 C169.276605,49.1008764 163.875286,54.4221756 163.875286,60.2947204 C163.875286,66.1672652 169.276605,71.49301 175.14915,71.4085448 L202.37802,71.2707334 L195.709725,84.7451342 L160.701178,84.7451342 L143.332493,54.182117 L160.83899,22.5077172 L198.079193,22.5077172 L206.761312,40.3254006 L229.131218,40.3254006 L215.029998,6.53492878 L211.971474,0.280068376 L147.640212,0.280068376"></path>
		<path d="M260.232144,0.142256953 C254.4085,0.21338543 249.180558,5.57469434 249.256132,11.3938928 L249.256132,40.3565194 L271.48378,40.3565194 L271.48378,11.3938928 C271.554908,5.48133822 266.140254,0.0666829466 260.232144,0.142256953"></path>
		<path d="M295.85862,107.36399 C294.42716,107.36399 292.982362,107.088367 291.608694,106.519339 C287.456568,104.798919 284.749242,100.744596 284.749242,96.2501652 L284.749242,11.5005855 C284.749242,5.36130892 289.723788,0.38676109 295.863066,0.38676109 C302.002342,0.38676109 306.97689,5.36130892 306.97689,11.5005855 L306.97689,69.4169474 L372.748504,3.64088888 C375.918166,0.466780626 380.692664,-0.493453806 384.858126,1.23141175 C389.01025,2.95183178 391.717578,7.00615494 391.717578,11.5005855 L391.717578,96.2501652 C391.717578,102.389442 386.74303,107.36399 380.603754,107.36399 C374.464478,107.36399 369.48993,102.389442 369.48993,96.2501652 L369.48993,38.3338032 L303.718316,104.109862 C301.597798,106.234825 298.75266,107.36399 295.85862,107.36399"></path>
		<path d="M474.044344,53.7909104 L508.61723,19.3425001 C512.964958,15.0125541 512.978294,7.97528042 508.643902,3.62310676 C504.313956,-0.724621354 497.281128,-0.733512414 492.928956,3.5964336 L458.302724,38.1026358 L423.676492,3.5964336 C419.324318,-0.737957944 412.29149,-0.724621354 407.961544,3.62310676 C403.627152,7.97528042 403.64049,15.0125541 407.983772,19.3425001 L442.556658,53.7909104 L408.08602,88.141519 C403.733846,92.4759104 403.724954,99.5087386 408.059346,103.856467 C410.228764,106.039222 413.07835,107.128377 415.93238,107.128377 C418.768628,107.128377 421.604876,106.048113 423.774294,103.88314 L458.302724,69.479185 L492.826708,103.88314 C495.000572,106.048113 497.832374,107.128377 500.673068,107.128377 C503.527098,107.128377 506.372238,106.039222 508.546102,103.856467 C512.876048,99.5087386 512.867156,92.4759104 508.519428,88.141519 L474.044344,53.7909104"></path>
		<path d="M260.232144,107.048357 C254.4085,106.977229 249.180558,101.61592 249.256132,95.7967212 L249.256132,49.274252 L271.48378,49.274252 L271.48378,95.7967212 C271.554908,101.70483 266.140254,107.119486 260.232144,107.048357"></path>
	</g>
</svg>

<svg width="512" height="108" viewBox="0 0 512 108" xmlns="http://www.w3.org/2000/svg" preserveAspectRatio="xMidYMid"><g fill="#090"><path d="M96.174 107.15c-2.89 0-5.734-1.124-7.86-3.254L22.545 38.12v57.917c0 6.14-4.976 11.114-11.115 11.114-6.136 0-11.115-4.974-11.115-11.113v-84.75c0-4.5 2.712-8.55 6.864-10.27 4.147-1.724 8.93-.772 12.11 2.41l65.77 65.777V11.287c0-6.14 4.975-11.114 11.114-11.114 6.14 0 11.114 4.975 11.114 11.114v84.75c0 4.494-2.712 8.55-6.864 10.27-1.373.568-2.814.844-4.25.844M147.64.28l-3.054 5.7-23.62 42.925-3.053 5.42 3.054 5.414 23.62 41.538 3.19 5.695h61.825l3.054-6.25L230.3 65.157l7.918-16.115h-17.92l-45.15.138c-5.87-.08-11.273 5.242-11.273 11.115 0 5.872 5.402 11.198 11.274 11.114l27.228-.14-6.668 13.475H160.7l-17.368-30.563 17.507-31.674h37.24l8.68 17.817h22.37l-14.1-33.79L211.97.28h-64.33M260.232.142c-5.824.07-11.05 5.433-10.976 11.252v28.963h22.228V11.394C271.554 5.48 266.14.067 260.232.142M295.86 107.364c-1.433 0-2.878-.276-4.25-.845-4.153-1.72-6.86-5.775-6.86-10.27V11.5c0-6.14 4.974-11.113 11.113-11.113 6.14 0 11.114 4.974 11.114 11.114v57.917L372.75 3.64c3.168-3.173 7.943-4.133 12.108-2.41 4.152 1.722 6.86 5.776 6.86 10.27v84.75c0 6.14-4.975 11.114-11.114 11.114-6.14 0-11.114-4.975-11.114-11.114V38.334l-65.772 65.776c-2.12 2.125-4.965 3.254-7.86 3.254M474.044 53.79l34.573-34.447c4.348-4.33 4.36-11.368.027-15.72-4.33-4.348-11.363-4.357-15.715-.027l-34.627 34.507-34.627-34.507c-4.352-4.334-11.385-4.32-15.714.027-4.335 4.352-4.322 11.39.022 15.72l34.573 34.448-34.47 34.352c-4.353 4.334-4.362 11.367-.028 15.714 2.17 2.183 5.018 3.272 7.872 3.272 2.837 0 5.673-1.08 7.842-3.245l34.53-34.404 34.523 34.403c2.174 2.165 5.005 3.245 7.846 3.245 2.854 0 5.7-1.09 7.873-3.272 4.33-4.347 4.32-11.38-.027-15.714l-34.476-34.35M260.232 107.048c-5.824-.07-11.05-5.432-10.976-11.25V49.273h22.228v46.523c.07 5.908-5.344 11.322-11.252 11.25"/></g></svg>
